!!!ONB: MCCC : IFS0366_01 : Extracted Monophonic Melody
!!!COM: Schubert, Franz
!!!OPR: Vier Impromptus
!!!OMV: 1
!!!SCT: D.899 ; Op.90
!!!ODT: 1827///
**kern
*staff1
=1
*clefG2
*k[b-e-a-]
*E-:
*M4/4
2.gg
8.b
16cc
=2
4dd
4dd
4dd
8.cc
16dd
=3
4.ee-
8dd
4cc
8.dd
16cc
=4
4b
8.a
16b
4cc
8.dd
16ee-
=5
2.dd
8.b
16cc
=6
4dd
4dd
4dd
8.cc
16dd
=7
4.ee-[
16ee-]
16dd
4cc
8.dd
16cc
=8
4b
8.a
16b
4cc
8.ee-
16dd
=9
2.cc
8.dd
16ee-
=10
4ff
4ff
4ff
8.ee-
16dd
=11
4.gg
8ff
4ee-
8.dd
16cc
=12
4b
8.a
16b
4cc
8.ff
16ee-
=13
2.dd
8.dd
16ee-
=14
4ff
4ff
4ff
8.ee-
16dd
=15
4.gg[
16gg]
16ff
4ee-
8.dd
16cc
=16
4b
8.a
16b
4cc
8.ee-
16dd
=17
2.cc
8.b
16cc
=18
4dd
4dd
4dd
8.cc
16dd
=19
32cc
16.dd
8r
8ee-
8dd
4cc
8.dd
16cc
=20
4b
8.a
16b
4cc
8.dd
16ee-
=21
2.dd
8.b
16cc
=22
4dd
4dd
4dd
8.cc
16dd
=23
4.ee-[
16ee-]
16dd
4cc
8.dd
16cc
=24
4b
8.a
16b
4cc
8.ee-
16dd
=25
2.cc
8.dd
16ee-
=26
4ff
4ff
4ff
32ee-
16.ff
16ee-
16dd
=27
4gg
8.gg
16ff
4ee-
8.dd
16cc
=28
4b
8.a
16b
4cc
8.ff
16ee-
=29
2.dd
8.dd
16ee-
=30
4ff
4ff
4ff
8.ee-
16dd
=31
4.gg[
16gg]
16ff
4ee-
8.dd
16cc
=32
4b
8.a
16b
4cc
8.ee-
16dd
=33
2.cc
8.ee-
16dd
=34
2cc
8.cc[
32cc]
32cc
8.ee-
16dd
=35
2.cc
8.dd
16ee-
=36
4ff
8.ee-
16dd
4cc
4b
=37
2.cc
8.ee-
16dd
=38
2.cc
8.ee-
16dd
=39
2.cc
8.dd-
16ee-
=40
32dd-
32ee-
8.ff
8.ee-
16dd-
4cc
4b-
=41
2a-
4r
8.a-
16cc
=42
4ee-
4ee-
4ee-
4ee-
=43
2ff
2ee-
=44
2dd-
2cc
=45
4b-
4dd-
4cc
4b-
=46
2a-
4r
8.a-
16cc
=47
4ee-
4ee-
4ee-
4ee-
=48
2ee
2ee-
=49
2dd-
4.b
8b-
=50
8.a-[
32a-]
32a-
4ee
4ee-
4dd-
=51
2.b
8.b
16ee-
=52
4gg-
4gg-
4gg
4aa-
=53
4bb-
4ddd-
4bb
8.bb-
16aa-
=54
4gg
4gg
8aa-
8gg
8ff
8gg
=55
2.aa-
8.aa-
16ccc
=56
4eee-
4eee-
4eee-
4eee-
=57
4fff
4ggg
4aaa-
4eee-
=58
4eee-
4ddd-
4ddd-
4ccc
=59
4bb-
4ddd-
4ccc
4bb-
=60
12aa-
12e-
12a-
12cc
12a-
12e-
12ee-
12cc
12a-
12a-
12cc
12ee-
=61
12ee-
12b-
12g
12ee-
12b-
12g
12ee-
12cc
12a-
12b-
12ee-
12gg
=62
12aa-
12ee-
12a-
12aa-
12dd
12a-
12aa-
12ee-
12b-
12b-
12ee-
12gg
=63
12ff
12b-
12g
12ff
12b
12g
12ff
12cc
12a-
12a-
12cc
12ee-
=64
12d-
12a-
12dd-
12f
12a-
12b-
12e-
12a-
12cc
12g
12ee-
12dd
=65
12cc
12e-
12a-
12cc
12a-
12e-
12ee-
12cc
12a-
12a-
12cc
12ee-
=66
12ee-
12b-
12g
12ee-
12b-
12g
12ee-
12b
12a-
12b-
12ee-
12gg
=67
12aa-
12ee-
12a-
12aa-
12dd-
12b-
12aa-
12ee-
12b
12b
12ee-
12gg-
=68
12ee
12b
12g
12ee
12b-
12g
12ee
12b
12a-
12a-
12b
12ee-
=69
12a-
12b
12dd-
12a-
12b
12ee
12g-
12b
12ee-
12b-
12gg-
12ee
=70
12ee-
12e-
12g-
12b
12g-
12e-
12ee-
12b
12g-
12b
12ee-
12gg-
=71
4gg-
4gg-
4gg
4aa-
=72
4bb-
4ddd-
4bb
8.bb-
16aa-
=73
4gg
4gg
8aa-
8gg
8ff
8gg
=74
2aa-
8dd-
8cc
8b
16.cc
32cc
=75
2ff
8cc
8b-
8a
16.b-
32b-
=76
2ee-
8dd-
8cc
8b-
8a-
=77
8ee-
8dd-
8cc
8b-
4a-
8.cc
16b-
=78
4a-
4r
8dd-
8cc
8b
8cc
=79
8ccc
8bb-
8aa
8bb-
8cc
8b-
8a
8b-
=80
8bb-
8aa-
8gg
8aa-
8dd-
8cc
8b-
8a-
=81
8gg
8ff
8ee-
8dd-
4cc
8.dd-
16b-
=82
2.a-
8.c
16e-
=83
4a-
4a-
4a-
4a-
=84
2.g
8.c
16e-
=85
4g
4g
4g
4g
=86
2f
2g-
=87
12g
12g
12g
12g
12g
12g
12g
12g
12g
12g
12g
12g
=88
12g
12g
12g
12g
12g
12g
12g
12g
12g
12g
12g
12g
=89
12g
12g
12g
12g
12g
12g
12g
12g
12g
12g
12g
12f
=90
12g
12g
12g
12g
12g
12g
12g
12g
12g
12g
12g
12g
=91
12g
12g
12g
12g
12g
12g
12g
12g
12g
12g
12g
12g
=92
12g
12g
12g
12g
12g
12g
12g
12g
12g
12a-
12a-
12a-
=93
12g
12g
12g
12g
12g
12g
12g
12g
12g
12g
12g
12f
=94
12g
12g
12g
12g
12g
12g
12g
12g
12g
12g
12g
12g
=95
2g
4r
8.b
16cc
=96
4dd
4dd
4dd
8.cc
16dd
=97
4ee-
8ee-
8dd
4cc
8.dd
16cc
=98
4b
8.a
16b
4cc
8.dd
16ee-
=99
48a-
48dd
12dd
4.dd[
4dd]
8.b
16cc
=100
4dd
4dd
4dd
8.cc
16dd
=101
4.ee-
8dd
4cc
8.dd
16cc
=102
4b
8.b[
16b]
4cc
8.ee-
16dd
=103
2.cc
8.dd
16ee-
=104
4ff
4ff
4ff
8.ee-
16dd
=105
4gg
8gg
16ff[
16ff]
4ee-
8.dd
16cc
=106
4b
4b
4cc
4r
=107
48a-
48dd
12dd
4.dd[
4dd]
8.dd
16ee-
=108
4ff
4ff
4ff
8.gg
16aa-
=109
4bb-
4aa-
4gg
8.ff
16dd
=110
4b
8.b[
16b]
4cc
8.ee-
16dd
=111
2.cc
12cc
12cc
12cc
=112
2.ccc
12cc
12cc
12cc
=113
2.ccc
12cc
12cc
12cc
=114
4dd-
8.ff
16aa-
4gg
4gg
=115
2.cc
12cc
12cc
12cc
=116
2.ccc
12cc
12cc
12cc
=117
2.ccc
12cc
12cc
12cc
=118
4dd-
8.ff
16aa-
4gg
4gg
=119
2.cc
12cc
12cc
12cc
=120
12cc
12cc
12cc
12cc
12cc
12cc
12cc
12cc
12cc
12cc
12cc
12cc
=121
12cc
12cc
12cc
12cc
12cc
12cc
12cc
12cc
12cc
12cc
12cc
12cc
=122
12cc
12cc
12cc
12cc
12cc
12cc
12cc
12cc
12cc
12b-
12b-
12b-
=123
12b-
12b-
12b-
12a
12a
12a
12g
12g
12g
12g-
12g-
12g-
=124
2g
4r
8.g
16b-
=125
4dd
16r
16d
16g
16b-
4dd
16r
16d
16g
16b-
=126
2ee-
16r
16d
16g
16b-
16d
16b-
16g
16d
=127
2cc
16r
16B-
16d
16g
16B-
16g
16d
16B-
=128
4a
16r
16e-
16g
16a-
4b-
16r
16c
16d
16f#
=129
2.g
4r
=130
16r
16d
16g
16b-
4dd
16r
16d
16g-
16a
4dd
=131
16r
16e-
16g
16cc
16a
16cc
16a
16f
2dd
=132
16r
16c
16e-
16a
16g-
16a
16g-
16d
2b-
=133
16r
16e-
16d
16c
4ee-
16r
16d
16f
16b-
4cc
=134
16r
16B-
16d
16f
16g-
16e-
16c
16g-
16f
16d
16f
16a
16b-
16f
16b-
16dd
=135
4ff
4ff
4gg-
4gg
=136
4aa
4ccc
4bb-
8.aa
16gg
=137
4gg-
4gg-
8gg
8ff#
8ee
8ff#
=138
2gg
16r
16g
16b-
16dd
16gg
16b-
16dd
16gg
=139
8r
8ff#
8r
8aa
8r
8gg
8r
8ff#
=140
8r
8gg
8gg
8ddd-
8r
8ddd
8ddd
8dd
=141
8r
8ee-
8ee-
8aa
8r
8bb-
8bb-
8b-
=142
8r
8cc
8r
8ee-
8r
8dd
8r
8ff#
=143
8r
8gg
8dd
8cc
8b-
8dd
8gg
8dd
=144
8r
8dd
8r
8aa
8r
8gg
8r
8ff#
=145
8r
8gg
8gg
8ddd-
8r
8ddd
8ddd
8dd
=146
8r
8ee-
8ee-
8aa
8r
8bb-
8bb-
8cc
=147
8r
8ee-
8r
8cc
8r
8ff
8r
8aa
=148
8r
8bb-
8bb-
8ff
8dd
8b-
8.b-
16dd
=149
4ff
4ff
4gg-
4gg
=150
4aa
4ccc
4bb-
8.aa
16gg
=151
4gg-
4gg-
8gg
8ff#
8ee
8ff#
=152
2gg
8cc
8b
8a#
16.b
32b
=153
2ee
8b
8a
8g#
16.a
32a
=154
2dd
8cc
8b
8a
8g
=155
8dd
8cc
8b
8a
4g
8.b
16a
=156
4g
4r
8cc
8b
8a#
8b
=157
8bb
8aa
8gg#
8aa
8b
8a
8g#
8a
=158
8aa
8gg
8ff#
8gg
8cc
8b
8a
8g
=159
8gg-
8ee
8dd
8cc
4b
8.cc
16a
=160
12g
12g
12g
12g
12g
12g
12g
12g
12g
12g
12g
12g
=161
12g
12g
12g
12g
12g
12g
12g
12g
12g
12g
12g
12g
=162
12g
12g
12g
12g
12g
12g
12g
12g
12g
12g
12g
12f
=163
12g
12g
12g
12g
12g
12g
12g
12g
12g
12g
12g
12g
=164
12g
12g
12g
12g
12g
12g
12g
12g
12g
12g
12g
12g
=165
12g
12g
12g
12g
12g
12g
12g
12g
12g
12a-
12a-
12a-
=166
12g
12g
12g
12g
12g
12g
12g
12g
12g
12g
12g
12f
=167
12g
12g
12g
12g
12g
12g
12g
12g
12g
12g
12g
12g
=168
2g
4r
8.b
16cc
=169
4dd
4dd
4dd
8.cc
16dd
=170
4.ee
8dd
4cc
8.dd
16cc
=171
4b
8.a
16b
4cc
8.dd
16ee
=172
2.dd
8.b
16cc
=173
4dd
4dd
4dd
8.ee
16ff
=174
4gg
4ff
4ee
8.ff
16dd
=175
4b
4b
4b
8.ee
16dd
=176
2cc
4r
8.bb
16ccc
=177
4ddd
4ddd
4ddd
8.ccc
16ddd
=178
4.eee-
8ddd
4ccc
8.ddd
16ccc
=179
4bb
8.aa
16bb
4ccc
8.ddd
16eee-
=180
2.ddd
8.dd
16ee-
=181
4ff
4ff
4ff
32ee-
16.ff
16ee-
16dd
=182
4gg
8gg
8ff
4ee-
8.dd
16cc
=183
4b
8.a
16b
4cc
8.ff
16ee-
=184
2.dd
8.b
16cc
=185
4dd
4dd
4dd
8.ee
16ff
=186
4.gg
8ff
4ee
4r
=187
4.e
8f
4e
4r
=188
4.ff
8ee-
4dd
4r
=189
4.d
8e-
4d
4r
=190
2ee-
4dd
4cc
=191
2g
8cc
8b
8a
8b
=192
1cc[
=193
2.cc]
8.b
16cc
=194
4dd
4dd
4dd
8cc
8b
=195
4.ee-
8dd
8cc
8g
8cc
8dd
=196
4ee-
8dd
8cc
4g
4b
=197
2.cc
4r
=198
2.gg
4r
=199
2.gg
8ee-
8ff
=200
8gg
8ee-
8b
8cc
4g
4b
=201
2cc
4g
4b
=202
2cc
2r
=203
1r
=204
1r
==
*-
